X:981
T:I Belong To Glasgow
C:Joe Buchanan's Scottish Tome - Page 567.2
I:567 2
Z:Carl Allison
C:Will Evers
R:Waltz
L:1/4
M:3/4
K:C
"C"C2 D | "C"E2 F | "C"G c2- | "C7"c3 | "F"c2 d | "G"c2 A | "C"G3- | "G7"G2 G |
"C"C C C | "C"C D E | "C"G2 A | "Am"B2 c | "D7"d2 ^c | "D7"d2 e | "Bm"d3- | "G7"d2 G |
"C"c c d | "C7"e d d | "F"d2 c | "F"A2 G | "F"A B c | "C"G2 E | "D7"D3- | "G7"D2 G |
"C"c c c | "G"c B A | "C"G A G | "A7"E F G | "D7"A B c | "G7"d2 c | "C"c3- | c2 |

